assets/Womans sandal/Flat/womans_sandal_flat.svg

<svg width="32" height="32" viewBox="0 0 32 32" fill="none" xmlns="http://www.w3.org/2000/svg">
<path d="M7.37891 29.9922H3.64002C3.30002 29.9922 3 29.7425 3 29.4025V19.0039H7.99891V29.4025C7.99891 29.7425 7.71891 29.9922 7.37891 29.9922Z" fill="#D3883E"/>
<path d="M5.00049 22.0052C3.16781 22.0052 3.00049 19.8307 3.00049 19.0161L8.00408 21.1325V23.0161C8.00408 22.3252 7.16044 22.0052 6.49135 22.0052H5.00049Z" fill="#B76A1E"/>
<path d="M29.3 30.0025H14.15C12.67 30.0025 11.48 28.8025 11.48 27.3325V24.2225C11.48 22.5225 10.1 21.1425 8.4 21.1425H4.97C3.88 21.1425 3 20.2625 3 19.1725V18.5625C3 18.3325 3.19 18.1425 3.42 18.1425H8.31C11.72 18.1425 14.48 20.9025 14.48 24.3125V26.2461C14.48 26.6661 14.82 26.9961 15.23 26.9961H30.6C30.82 26.9961 31 27.1925 31 27.4125V28.3225C30.99 29.2425 30.23 30.0025 29.3 30.0025Z" fill="#E19747"/>
<path d="M21.9 20.1625L26.74 21.9025C27.17 22.0625 27.46 22.4725 27.46 22.9325L27.43 28.9125C27.43 29.5125 26.94 29.9925 26.34 29.9925H17.77C16.59 29.9925 15.86 28.7125 16.45 27.7025L20.58 20.6325C20.86 20.1925 21.4 19.9925 21.9 20.1625Z" fill="#CA0B4A"/>
</svg>

<svg xmlns="http://www.w3.org/2000/svg" width="32" height="32" fill="none"><path fill="#D3883E" d="M7.379 29.992H3.64c-.34 0-.64-.25-.64-.59V19.005h4.999v10.398c0 .34-.28.59-.62.59Z"/><path fill="#B76A1E" d="M5 22.005c-1.832 0-2-2.174-2-2.989l5.004 2.117v1.883c0-.69-.844-1.01-1.513-1.01h-1.49Z"/><path fill="#E19747" d="M29.3 30.003H14.15a2.67 2.67 0 0 1-2.67-2.67v-3.11c0-1.7-1.38-3.08-3.08-3.08H4.97c-1.09 0-1.97-.88-1.97-1.97v-.61c0-.23.19-.42.42-.42h4.89c3.41 0 6.17 2.76 6.17 6.17v1.933c0 .42.34.75.75.75H30.6c.22 0 .4.197.4.417v.91c-.01.92-.77 1.68-1.7 1.68Z"/><path fill="#CA0B4A" d="m21.9 20.163 4.84 1.74c.43.16.72.57.72 1.03l-.03 5.98c0 .6-.49 1.08-1.09 1.08h-8.57c-1.18 0-1.91-1.28-1.32-2.29l4.13-7.07c.28-.44.82-.64 1.32-.47Z"/></svg>
